X:1
T:THE SNEAK!
T:THE SNEAK!
T:NOVELTY FOXTROT SONG
T:Nacio Herb Brown
T:1922
T:1922
T:1922
T:1922
T:1922
T:1922
T:1922
C:Nacio Herb Brown
Z:Nacio Herb Brown
Z:1922
%%score ( 1 2 3 ) { ( 4 6 ) | 5 }
L:1/8
Q:1/4=114
M:2/2
K:Bb
V:1 treble nm="Voice"
V:2 treble 
V:3 treble 
V:4 treble nm="Piano"
V:6 treble 
V:5 bass 
V:1
"^Moderato e mysterioso" x8 | x8 | x8 | x8 || d8- | d x d x B2 A2 | G z F z E z D z | %7
w: ||||Have|_ heard bout the|Sneak, Ha! Ha! the|
 G z F z E z D z | d8- | d x d x B2 A2 | G z F z E z D z | G z F z E z D z | d8- | d x d x B2 A2 | %14
w: Sneak, Ha! Ha! Ha!|In|_ win he will|peek, Ha! Ha! will|peek, Ha! Ha! Ha!|When|_ wind gins to|
 G z F z E z D z | G z F z E z D z | d8- | d x _d x B2 A2 | G8 | F4 z4 || %20
w: howl, Ha! Ha! Ha!|howl, Ha! Ha! Ha!|In|_ bed- he will|prowl|then.|
[M:2/2]"^not too fast" G4 c2 z2 | F x G4 A2 | B x c2- cA x G | A x G2- G x ^C x | F2 G2- G x x _G | %25
w: rise be-|fore eyes And|laugh glee _ And so|mer- ly _ got|num- ber, _ er|
 F2 G4 A2 | d x c2- c x B x | A x G4 x ^F | G2 A4 =B2 | d x c4 G x | F2 G4 A2 | c x _B4 B2 | %32
w: slum- ber, For|he gloat _ try|get goat, a|white ghost, he's|in air when|grab him, he|is- there, He'll|
 A2 =E2 F2 G x | A2 =E2 F2 G2 | A8- | A2 G x G2 _G2 | F2 G4 A2 | F x G4 A2 | d x c2- cA x G | %39
w: make you shake, keep|wide a- wake, and|OH!|_ how shiv- er.|Sand- man comes|steal- 'round but|at glance, _ he n't|
 A x G4 G^F | G2 A4 =B2 | G z A4 =G2 | c4- c x A x | c8 | d2 A2 B2 c2 | d x B x G2 B x | %46
w: got chance, "There is|no doubt" says|Mis- Gout, "you'll|pay _ step-|out,"|Mince pies, rare- bits,|ev- thing ate Keeps|
 d2 A2 B2 c2 | d x B x G2 G x | F2 G4 G x |"^ritard" F2 G4 d2 | (B8 | A4) z4 || %52
w: jump- ing, thump- ing,|yell- "This great" While|moon gleams And|owl screams "Sweet|Dreams."|_|
[Q:1/4=114]"_Mysterioso""_(atempo)" z8 | z8 | z8 | z8 || d8- | d x d x B2 A2 | G z F z E z D z | %59
w: ||||Just|_ soon break of|day, Ha! Ha! the|
 G z F z E z D z | d8- | d x d x B2 A2 | G z F z E z D z | G z F z E z D z | d8- | d x d x B2 A2 | %66
w: day Ha! Ha! Ha!|Then|_ Sneak sneaks a-|way, Ha! Ha! a-|way, Ha! Ha! Ha!|While|_ roll toss Can't|
 G z F z E z D z | G z F z E z D z | d8- | d4 e4 |"^(shout)" g z z2 z4 | z8 |] %72
w: sleep, Ha! Ha! can't|sleep, Ha! Ha! Ha!|Goes|_ the|Sneak!||
V:2
 x8 | x8 | x8 | x8 || x8 | x ^c x =c x4 | x8 | x8 | x8 | x ^c z =c x4 | x8 | x8 | x8 | %13
w: |||||you a||||your dow||||
 x ^c z =c x4 | x8 | x8 | x8 | x ^c z =c x4 | x8 | x8 ||[M:2/2] x8 | x ^F x6 | x A x4 B x | %23
w: the be||||your room||||your|in dance|
 x F x3 D x D | x6 B x | x8 | x A x3 A x G | x F x4 G x | x8 | x _d x5 _G | x8 | x =B x6 | x7 _A | %33
w: ri He's your|nev||will and to|your Like||the you||n't|you|
 x8 | x8 | x3 A x4 | x8 | x ^F x6 | x A x4 A x | x F x6 | x8 | x ^G x6 | x5 G x =B | x8 | x8 | %45
w: ||you||in'|a has-|a||ter|for ping|||
 x c x A x3 c | x8 | x c x A x3 _A | x7 _G | x8 | x8 | x8 || x8 | x8 | x8 | x8 || x8 | %57
w: 'ry- you a||ing is the|the|||||||||
 x ^c z =c x4 | x8 | x8 | x8 | x ^c x =c x4 | x8 | x8 | x8 | x ^c x =c x4 | x8 | x8 | x8 | x8 | %70
w: as as||||the he||||you and|||||
 x8 | x8 |] %72
w: ||
V:3
 x8 | x8 | x8 | x8 || x8 | x8 | x8 | x8 | x8 | x8 | x8 | x8 | x8 | x8 | x8 | x8 | x8 | x8 | x8 | %19
w: |||||||||||||||||||
 x8 ||[M:2/2] x8 | x8 | x8 | x8 | x5 A x2 | x8 | x8 | x8 | x8 | x8 | x8 | x8 | x8 | x8 | x8 | x8 | %36
w: |||||you'll||||||||||||
 x8 | x8 | x8 | x8 | x8 | x8 | x8 | x8 | x8 | x8 | x8 | x8 | x8 | x8 | x8 | x8 || x8 | x8 | x8 | %55
w: |||||||||||||||||||
 x8 || x8 | x8 | x8 | x8 | x8 | x8 | x8 | x8 | x8 | x8 | x8 | x8 | x8 | x8 | x8 | x8 |] %72
w: |||||||||||||||||
V:4
!f!({DE)F} .G2 z .F z .E z .D |({DE)F} .G z .F z .E z .D z |({DE)F} .G z .F z .E z .D z | %3
({DE)F} .G z .F z .E z .D z ||({DG)} [Bd]8- | [Bd]([A^c][Bd][A=c] [GB]2 [DA]2) | %6
 .[B,G] z .F z .E z .D z | .G z .F z .E z .D z | [Bd]8 | [Bd][A_d][B=d][Ac] [GB]2 [DA]2 | %10
 .[B,G] z .F z .E z .D z |({DE)F} .G z .F z .E z .D z |({D^F)} [Ad]8 | [Gd]^cd=c [DB]2 [DA]2 | %14
 .G z .F z .E z .D z |({DE)F} .G z .F z .E z .D z |({E^F)} [Ad]8 | [Ad]^cd=c B2 A2 | G8 | %19
 [A,EF]2 F=E F^FG_G ||[M:2/2]"_staccato" [EG]2 z2 [EA]2 z2 | [EF]^F [EG]2 z2 [EA]2 | %22
 [Dd]A x z z x [DB]G | [DA]F x z z x ^C=E | [EF]2 [EG]2 z x [EG]_G | [EF]2 [EG]2 z2 [EA]2 | %26
 [Dd]A x z z x [DB]G | [DA]F x z z2 [DG]^F | [FG]2 [FA]2 z2 [F=B]2 | [=EBd]_d[EB] z z2 [EG]_G | %30
 [EF]2 [E=G]2 z2 [EA]2 | [DFc]=B x z z2 [DE_B]2 | [C=EGA]2 [CE]2 [CF]2 [DG]^G | %33
 [^C=GA]2 [=C=E]2 [CF]2 [CG]2 | [A,A]4- z4 | [A,_E=FA]2 [B,EG]A [A,EG]2 [A,E_G]2 | %36
 [EF]2 [EG]2 z2 [EA]2 | [EF]^F [EG]2 z2 [EA]2 | [Dd]A x z z x [DB]G | [DA]F x z z2 [DG]^F | %40
 [=FG]2 [FA]2 z2 [F=B]2 | [FG]^G x z z2 [F=B]2 | [Cc]4- [Cc][G,G][A,A][=B,=B] | [Cc]8 | x8 | %45
 D4- [DG]2 x2 | [D^Fd]2 [CFA]2 [DFB]2 [DFc]2 | D4 [DG]2 [B,=EG]_A | [EF]2 [EG]2 z2 [EG]_G | %49
"_ritard" [EF]2 [E=G]2 z2 [FAd]2 | [B,B]8 | z2 [D^F][DF] [DF]2 [DF]2 || %52
({DE)F} .G z .F z .E z .D z |({DE)F} .G z .F z .E z .D z |({DE)F} .G z .F z .E z .D z | %55
({DE)F} .G z .F z .E z .D z ||!f!({DG)} [Bd]8- | [Bd][A^c][Bd][A=c] [GB]2 [DA]2 | %58
 .[B,G]2 .F z .E z .D z |!mp!({DE)F} .G z .F z .E z .D z |!p!({DG)} [Bd]8- | %61
 [Bd]([A_d][B=d][Ac] [GB]2 [FA]2) | .[B,G] z .F z .E z!>(! .D z |({DE)F} .G z!>)! .F z .E z .D z | %64
!pp!({D^F)} [Ad]8- | [Ad]_d=dc [DB]2 [DA]2 |({DE)F} .G z .F z .E z .D z | %67
({DE)F} .G z .F z .E z .D z |!<(! [Ad]8-!<)! | [Ad]4 [EAce]4 | .[GBdg] z .[Ff] z .[Ee] z .[Dd] z | %71
 .[Cc].[B,B] x z [G,B,DG] z z2 |] %72
V:5
 [G,,G,] z [F,,F,] z [E,,E,] z [D,,D,] z | [G,,G,] z [F,,F,] z [E,,E,] z [D,,D,] z | %2
 [G,,G,] z [F,,F,] z [E,,E,] z [D,,D,] z | [G,,G,] z [F,,F,] z [E,,E,] z [D,,D,] z || %4
 [G,,G,] z [F,,F,] z [E,,E,] z [D,,D,] z | [G,,G,] z [F,,F,] z [E,,E,] z [D,,D,] z | %6
 .[G,,G,] z .[F,,F,] z .[E,,E,] z .[D,,D,] z | .[F,,G,] z .[F,,F,] z .[E,,E,] z .[D,,D,] z | %8
 [G,,G,] z [F,,F,] z [E,,E,] z [D,,D,] z | [G,,G,] z [F,,F,] z [E,,E,] z [D,,D,] z | %10
 .[G,,G,] z .[F,,F,] z .[E,,E,] z .[D,,D,] z | .[G,,G,] z .[F,,F,] z .[E,,E,] z .[D,,D,] z | %12
 [C,C] z [=B,,=B,] z [_B,,_B,] z [A,,A,] z | [C,C] z [=B,,=B,] z [_B,,_B,] z [A,,A,] z | %14
 .[G,,G,] z .[F,,F,] z .[E,,E,] z .[D,,D,] z | .[G,,G,] z .[F,,F,] z .[E,,E,] z .[D,,D,] z | %16
 [C,C] z [=B,,=B,] z [_B,,_B,] z [A,,A,] z | [C,C] z [=B,,=B,] z [_B,,_B,] z [A,,A,] z | %18
 [G,,G,] z [F,,F,] z [E,,E,] z [D,,D,] z | [C,,C,]2 z2 z4 ||[M:2/2] C,2 F,2 F,,2 F,2 | %21
 C,2 F,2 F,,2 F,2 | C,2 F,2 F,,2 F,2 | B,,2 F,2 F,,2 F,2 | C,2 F,2 F,,2 F,2 | C,2 F,2 F,,2 F,2 | %26
 B,,2 F,2 F,,2 F,2 | B,,2 F,2 F,,2 F,2 | B,,2 F,2 G,,2 G,2 | C,2 G,2 G,,2 G,2 | C,2 F,2 F,,2 F,2 | %31
 B,,2 F,2 F,,2 [G,,G,]2 | [A,,A,]2 [G,A,]2 [F,A,]2 [B,,B,]2 | [A,,A,]2 [G,A,]2 [F,A,]2 [=E,A,]2 | %34
 [D,,D,]6 [_D,,_D,]2 | [C,,C,]2 C,2 F,2 F,,2 | C,2 F,2 F,,2 F,2 | C,2 F,2 F,,2 F,2 | %38
 B,,2 F,2 F,,2 F,2 | B,,2 F,2 F,,2 F,2 | D,2 F,2 G,,2 G,2 | D,2 G,2 G,,2 G,2 | %42
 [C,,C,]2 B,,2 A,,2 G,,2 | [C,,C,]2 B,,2 A,,2 G,,2 | A,,2 D,2 D,,2 D,2 | G,,2 F,2 [G,B,]2 D,2 | %46
 A,,2 D,2 D,,2 D,2 | G,,2 D,2 [G,B,]2 [_D,,_D,]2 | C,2 F,2 F,,2 F,2 | C,2 F,2 D,,F,G,A, | %50
 [B,,B,]2 [A,,A,]2 [G,,G,]2 [F,,F,]2 | [D,,D,]2 [C,,C,]2 [B,,,B,,]2 [A,,,B,,]2 || %52
 .[G,,G,] z .[F,,F,] z .[E,,E,] z .[D,,D,] z | .[G,,G,] z .[F,,F,] z .[E,,E,] z .[D,,D,] z | %54
 .[F,,G,] z .[F,,F,] z .[E,,E,] z .[D,,D,] z | .[G,,G,] z .[F,,F,] z .[E,,E,] z .[D,,D,] z || %56
 [G,,G,] z [F,,F,] z [E,,E,] z [D,,D,] z | [G,,G,] z [F,,F,] z [E,,E,] z [D,,D,] z | %58
 .[G,,G,] z .[F,,F,] z .[E,,E,] z .[D,,D,] z | .[G,,G,] z .[F,,F,] z .[E,,E,] z .[D,,D,] z | %60
 [G,,G,] z [F,,F,] z [E,,E,] z [D,,D,] z | [G,,G,] z [F,,F,] z [E,,E,] z [D,,D,] z | %62
 .[G,,G,] z .[F,,F,] z .[E,,E,] z .[D,,D,] z | .[G,,G,] z .[F,,F,] z .[E,,E,] z .[D,,D,] z | %64
 [C,C] z [=B,,=B,] z [_B,,_B,] z [A,,A,] z | [C,C] z [=B,,=B,] z [_B,,_B,] z [A,,A,] z | %66
 .[G,,G,] z .[F,,F,] z .[E,,E,] z .[D,,D,] z | .[G,,G,] z .[F,,F,] z .[E,,E,] z .[D,,D,] z | %68
 .[C,C] z .[=B,,=B,] z .[_B,,_B,] z .[A,,A,] z | .[C,C] z .[=B,,=B,] z .[_B,,_B,] z .[A,,A,] z | %70
 .[G,,G,] z .[F,,F,] z .[E,,E,] z .[D,,D,] z | .[C,,C,][B,,,B,,].[A,,,A,,] z .[G,,,G,,] z z2 |] %72
V:6
 x8 | x8 | x8 | x8 || x8 | x z x z x4 | x8 | x8 | x8 | x8 | x8 | x8 | x8 | x8 | x8 | x8 | x8 | x8 | %18
 x8 | x8 ||[M:2/2] x8 | x8 | x2 [Dc] x2 A x2 | x2 [DG] x2 D x2 | x5 A x2 | x8 | x2 [Dd] x2 A x2 | %27
 x2 [DG] x5 | x8 | x8 | x8 | x2 [DF_B] x5 | x8 | x8 | x2 [D^F][DF] [DF]2 [=EG]2 | x8 | x8 | x8 | %38
 x2 [Dc] x2 A x2 | x2 [DG] x5 | x8 | x2 [FA] x5 | x2 [EG][EG] [EG] x3 | z2 [EG][EG] [EG]2 [EG]2 | %44
 [EGd]2 [CFA]2 [DFB]2 [DFc]2 | dcBA x2 Bd | x8 | dcBA x4 | x8 | x8 | z2 [DF][DF] [DF]2 [DF]2 | %51
 [A,A]8 || z8 | x8 | x8 | x8 || x8 | x8 | x8 | x8 | x8 | x8 | x8 | x8 | x8 | x8 | x8 | x8 | x8 | %69
 x8 | x8 | x2 .[A,A] x5 |] %72

